src/svg/h-square.svg

<svg height="1000" width="875.0" xmlns="http://www.w3.org/2000/svg">
    <path d="m875 156.3v687.5c0 51.7-42 93.7-93.7 93.7h-687.5c-51.8 0-93.8-42-93.8-93.7v-687.5c0-51.8 42-93.8 93.8-93.8h687.5c51.7 0 93.7 42 93.7 93.8z m-218.7 93.7h-62.5c-17.3 0-31.3 14-31.3 31.3v156.2h-250v-156.2c0-17.3-14-31.3-31.2-31.3h-62.5c-17.3 0-31.3 14-31.3 31.3v437.5c0 17.2 14 31.2 31.3 31.2h62.5c17.2 0 31.2-14 31.2-31.2v-156.3h250v156.3c0 17.2 14 31.2 31.3 31.2h62.5c17.2 0 31.2-14 31.2-31.2v-437.5c0-17.3-14-31.3-31.2-31.3z" />
  </svg>

<svg height="1000" width="875" xmlns="http://www.w3.org/2000/svg"><path d="M875 156.3v687.5c0 51.7 -42 93.7 -93.7 93.7H93.8C42 937.5 0 895.5 0 843.8V156.3C0 104.5 42 62.5 93.8 62.5h687.5c51.7 0 93.7 42 93.7 93.8zM656.3 250h-62.5c-17.3 0 -31.3 14 -31.3 31.3v156.2h-250V281.3c0 -17.3 -14 -31.3 -31.2 -31.3h-62.5c-17.3 0 -31.3 14 -31.3 31.3v437.5c0 17.2 14 31.2 31.3 31.2h62.5c17.2 0 31.2 -14 31.2 -31.2V562.5h250v156.3c0 17.2 14 31.2 31.3 31.2h62.5c17.2 0 31.2 -14 31.2 -31.2V281.3c0 -17.3 -14 -31.3 -31.2 -31.3z"/></svg>
